X: 2
T: The Herd Passes Through the Village
N: Derived from pawnee02.krn
O: Oklahoma, U.S.A.
N: from Pawnee Music by Frances Densmore, 1926
Z: transcribed to **kern format by David Huron, August 2000
C: Skidi and Chaui Bands, 1919
L: 1/8
M: 3/4
Q: 1/4=88
K: G clef=bass
%%linebreak <none>
E/ E/ E E E E D | 
E E E E-E2[M:2/4] | 
E E E E | 
E G, (G, F,)[M:3/4] | 
G, E, E, F, F, F,[M:2/4] | 
E, E, (E, B,,)[M:3/4] | 
E, E, E, F, F, F,[M:2/4] | 
E, E, (E, B,,) | 
E, E, E, F, | 
F, E,E,2[M:3/4] | 
F E E E E E[M:2/4] | 
(E G,) (^G, F,)[M:3/4] | 
G, E, E, F, F, F,[M:2/4] | 
E, E, (E, B,,)[M:3/4] | 
E, E, E, F, F, F,[M:2/4] | 
E, E, (E, B,,) | 
E, E, E, F, | 
F, E,E,2 |]  



